app/dist/common/images/lifecore-biomedical.svg

<svg height="18" viewBox="0 0 18 18" width="18" xmlns="http://www.w3.org/2000/svg"><path d="m0 0h18v18h-18z" fill="#f0f3fa"/><path d="m9 5.5-1.5-1.5-5.5 5 5.5 5 1.5-1.5-4-3.5z" fill="#385eab"/><path d="m9 12.5 1.5 1.5 5.5-5-5.5-5-1.5 1.5 4 3.5z" fill="#30b4e5"/><path d="m9 7 2 2h-4zm-.75-2.25-4.75 4.25h1.5l4-3.5z" fill="#30b4e5"/><path d="m9 11-2-2h4zm.75 2.25 4.75-4.25h-1.5l-4 3.5z" fill="#385eab"/></svg>

<!-- by TradingView --><svg width="18" height="18" viewBox="0 0 18 18" xmlns="http://www.w3.org/2000/svg"><path fill="#F0F3FA" d="M0 0h18v18H0z"/><path d="M9 5.5 7.5 4 2 9l5.5 5L9 12.5 5 9l4-3.5Z" fill="#385EAB"/><path d="m9 12.5 1.5 1.5L16 9l-5.5-5L9 5.5 13 9l-4 3.5Z" fill="#30B4E5"/><path d="m9 7 2 2H7l2-2ZM8.25 4.75 3.5 9H5l4-3.5-.75-.75Z" fill="#30B4E5"/><path d="M9 11 7 9h4l-2 2ZM9.75 13.25 14.5 9H13l-4 3.5.75.75Z" fill="#385EAB"/></svg>
